logos/dashlane-icon.svg

<?xml version="1.0" encoding="UTF-8"?>
<svg width="256px" height="346px" viewBox="0 0 256 346" version="1.1" xmlns="http://www.w3.org/2000/svg" xmlns:xlink="http://www.w3.org/1999/xlink" preserveAspectRatio="xMidYMid">
    <g>
        <path d="M67.3311516,226.747712 C67.3311516,222.399263 74.4721833,219.636601 80.3565529,221.711091 L80.3565529,221.711091 L116.650148,235.045671 C119.492598,236.052995 121.257909,237.987856 121.257909,240.092266 L121.257909,240.092266 L121.257909,340.026815 C121.257909,344.385238 114.166745,347.147899 108.292348,345.07341 L108.292348,345.07341 L71.9389123,331.728856 C69.0964625,330.721532 67.3311516,328.786671 67.3311516,326.682261 L67.3311516,326.682261 Z M0,9.5047639 C0,5.15631447 7.15100514,2.38367928 13.0254013,4.45816892 L13.0254013,4.45816892 L49.368864,17.8027225 C52.2113137,18.8599143 53.9865981,20.7449073 53.9865981,22.8493174 L53.9865981,22.8493174 L53.9865981,336.286749 C53.9865981,340.635199 46.835593,343.39786 40.9611968,341.333344 L40.9611968,341.333344 L4.60776064,327.978817 C1.76531089,326.981466 0,325.036632 0,322.932222 L0,322.932222 Z M134.65233,209.972272 C134.65233,205.623823 141.803335,202.851187 147.677731,204.925677 L147.677731,204.925677 L184.031167,218.270231 C186.873617,219.277555 188.638928,221.212415 188.638928,223.316826 L188.638928,223.316826 L188.638928,315.412197 C188.638928,319.760647 181.487923,322.523308 175.613527,320.448819 L175.613527,320.448819 L139.26009,307.104265 L139.26009,307.084318 C136.427614,306.086967 134.65233,304.152107 134.65233,302.047697 L134.65233,302.047697 Z M202.013402,97.760335 C202.013402,93.4118856 209.104566,90.6392504 214.978962,92.7137401 L214.978962,92.7137401 L251.332398,106.058294 L251.382266,106.058294 C254.224716,107.065618 256,109.000478 256,111.104889 L256,111.104889 L256,262.363109 C256,266.711558 248.848995,269.47422 242.974599,267.39973 L242.974599,267.39973 L206.621163,254.055177 C203.778713,253.057826 202.013402,251.122966 202.013402,249.018555 L202.013402,249.018555 Z M134.65233,44.6414321 C134.65233,40.3428502 141.803335,37.5801886 147.677731,39.6546782 L147.677731,39.6546782 L184.031167,52.9992317 C186.873617,53.9965825 188.638928,55.8815755 188.638928,57.9859857 L188.638928,57.9859857 L188.638928,150.081357 C188.638928,154.429807 181.487923,157.202442 175.613527,155.127952 L175.613527,155.127952 L139.26009,141.783399 C136.427614,140.776074 134.65233,138.841214 134.65233,136.736804 L134.65233,136.736804 Z M67.3311516,5.6948839 C67.3311516,1.396302 74.4721833,-1.36635968 80.3565529,0.708129962 L80.3565529,0.708129962 L116.650148,14.04271 C119.492598,15.0500343 121.257909,16.9848948 121.257909,19.089305 L121.257909,19.089305 L121.257909,119.283165 C121.257909,123.631614 114.166745,126.40425 108.292348,124.32976 L108.292348,124.32976 L71.9389123,110.985206 C69.0964625,109.987856 67.3311516,108.043022 67.3311516,105.938611 L67.3311516,105.938611 Z" fill="#10363D"></path>
    </g>
</svg>

<svg preserveAspectRatio="xMidYMid" viewBox="0 0 256 346" xmlns="http://www.w3.org/2000/svg">
  <path fill="#10363D" d="M67.331 226.748c0-4.349 7.141-7.111 13.026-5.037l36.293 13.335c2.843 1.007 4.608 2.942 4.608 5.046v99.935c0 4.358-7.091 7.12-12.966 5.046L71.94 331.73c-2.843-1.007-4.608-2.942-4.608-5.047ZM0 9.505c0-4.349 7.151-7.121 13.025-5.047L49.37 17.803c2.842 1.057 4.618 2.942 4.618 5.046v313.438c0 4.348-7.151 7.11-13.026 5.046L4.608 327.98c-2.843-1-4.608-2.943-4.608-5.048Zm134.652 200.467c0-4.348 7.151-7.12 13.026-5.046l36.353 13.344c2.843 1.008 4.608 2.942 4.608 5.047v92.095c0 4.349-7.151 7.111-13.025 5.037l-36.354-13.345v-.02c-2.832-.997-4.608-2.932-4.608-5.036ZM202.013 97.76c0-4.348 7.092-7.12 12.966-5.046l36.353 13.344h.05c2.843 1.008 4.618 2.942 4.618 5.047v151.258c0 4.349-7.151 7.111-13.025 5.037l-36.354-13.345c-2.842-.997-4.608-2.932-4.608-5.036Zm-67.36-53.119c0-4.298 7.15-7.06 13.025-4.986l36.353 13.344c2.843.998 4.608 2.883 4.608 4.987v92.095c0 4.349-7.151 7.121-13.025 5.047l-36.354-13.345c-2.832-1.007-4.608-2.942-4.608-5.046ZM67.33 5.695c0-4.299 7.141-7.061 13.026-4.987l36.293 13.335c2.843 1.007 4.608 2.942 4.608 5.046v100.194c0 4.349-7.091 7.121-12.966 5.047L71.94 110.985c-2.843-.997-4.608-2.942-4.608-5.046Z"/>
</svg>
